X:103
T:Gneeveguilla Slide, The
R:slide
Z:id:hn-slide-103
M:6/8
L:1/8
K:G
def |: g2d ded | B2G GFG | ABA DFA | G2B def |
g2d ded | B2G GFG | ABA DFA |1 G3 G2d :|2 G3 G2B ||
|: ~d3 e2d | b3 bag | aba e2f | gag edB |
~d3 e2d | b3 bag | a2g e2f |1 g3 g2e :|2 g2d ||

